X: 305796
M: 6/8
L: 1/8
K: F
c/B/ |\
def ed^c | def ed^c | def def | e2a a2A |\
def efg | fgb gab | agf ed^c | ^c2 "^D.C."d3 |]


